Numix-Light/16/status/indicator-keyboard-Cs-5.svg

<?xml version="1.0" encoding="UTF-8" standalone="no"?>
<svg
   xmlns:dc="http://purl.org/dc/elements/1.1/"
   xmlns:cc="http://creativecommons.org/ns#"
   xmlns:rdf="http://www.w3.org/1999/02/22-rdf-syntax-ns#"
   xmlns:svg="http://www.w3.org/2000/svg"
   xmlns="http://www.w3.org/2000/svg"
   xmlns:sodipodi="http://sodipodi.sourceforge.net/DTD/sodipodi-0.dtd"
   xmlns:inkscape="http://www.inkscape.org/namespaces/inkscape"
   viewBox="0 0 16 16"
   id="svg2"
   version="1.1"
   inkscape:version="0.91 r13725"
   sodipodi:docname="indicator-keyboard-Cs-5.svg">
  <metadata
     id="metadata14">
    <rdf:RDF>
      <cc:Work
         rdf:about="">
        <dc:format>image/svg+xml</dc:format>
        <dc:type
           rdf:resource="http://purl.org/dc/dcmitype/StillImage" />
      </cc:Work>
    </rdf:RDF>
  </metadata>
  <defs
     id="defs12" />
  <sodipodi:namedview
     pagecolor="#ffffff"
     bordercolor="#666666"
     borderopacity="1"
     objecttolerance="10"
     gridtolerance="10"
     guidetolerance="10"
     inkscape:pageopacity="0"
     inkscape:pageshadow="2"
     inkscape:window-width="640"
     inkscape:window-height="480"
     id="namedview10"
     showgrid="false"
     inkscape:zoom="14.75"
     inkscape:cx="8"
     inkscape:cy="8"
     inkscape:window-x="65"
     inkscape:window-y="24"
     inkscape:window-maximized="0"
     inkscape:current-layer="svg2" />
  <path
     style="fill:#353535;fill-opacity:1"
     d="M 1.5996094 0 C 0.71320937 2.9605947e-16 0 0.71320937 0 1.5996094 L 0 14.400391 C 2.9605947e-16 15.286791 0.71320937 16 1.5996094 16 L 14.400391 16 C 15.286791 16 16 15.286791 16 14.400391 L 16 1.5996094 C 16 0.71320937 15.286791 0 14.400391 0 L 1.5996094 0 z M 5.0800781 4.7246094 C 5.3140781 4.7246094 5.52675 4.7395312 5.71875 4.7695312 C 5.91075 4.7995313 6.0786562 4.8387187 6.2226562 4.8867188 C 6.3666563 4.9287188 6.4897969 4.9734844 6.5917969 5.0214844 C 6.6937969 5.0634844 6.7721719 5.1026719 6.8261719 5.1386719 L 6.6269531 5.6699219 C 6.4769531 5.5799219 6.2847812 5.4922031 6.0507812 5.4082031 C 5.8227813 5.3182031 5.5373125 5.2734375 5.1953125 5.2734375 C 4.8053125 5.2734375 4.4639219 5.3387031 4.1699219 5.4707031 C 3.8819219 5.6027031 3.6394062 5.7892969 3.4414062 6.0292969 C 3.2434062 6.2692969 3.0941875 6.5547656 2.9921875 6.8847656 C 2.8961875 7.2147656 2.8476562 7.5804219 2.8476562 7.9824219 C 2.8476562 8.3964219 2.8961875 8.7714219 2.9921875 9.1074219 C 3.0941875 9.4374219 3.2396406 9.719125 3.4316406 9.953125 C 3.6236406 10.187125 3.8587656 10.366188 4.1347656 10.492188 C 4.4167656 10.618187 4.7376563 10.681641 5.0976562 10.681641 C 5.4936562 10.681641 5.8238906 10.646219 6.0878906 10.574219 C 6.3578906 10.496219 6.5612188 10.417844 6.6992188 10.339844 L 6.8710938 10.861328 C 6.8290937 10.891328 6.7562969 10.928703 6.6542969 10.970703 C 6.5522969 11.006703 6.4235781 11.045891 6.2675781 11.087891 C 6.1115781 11.129891 5.9305625 11.161547 5.7265625 11.185547 C 5.5225625 11.215547 5.2949688 11.230469 5.0429688 11.230469 C 4.6409687 11.230469 4.2659688 11.159625 3.9179688 11.015625 C 3.5759687 10.871625 3.2755781 10.660766 3.0175781 10.384766 C 2.7655781 10.108765 2.5660156 9.7691875 2.4160156 9.3671875 C 2.2720156 8.9591875 2.1992188 8.4946562 2.1992188 7.9726562 C 2.1992188 7.4506563 2.2775938 6.9898906 2.4335938 6.5878906 C 2.5955937 6.1798906 2.8082656 5.8365469 3.0722656 5.5605469 C 3.3362656 5.2845469 3.6422344 5.0774531 3.9902344 4.9394531 C 4.3382344 4.7954531 4.7020781 4.7246094 5.0800781 4.7246094 z M 9.1601562 6.3359375 C 9.4781563 6.3359375 9.7393594 6.3620156 9.9433594 6.4160156 C 10.153359 6.4700156 10.298812 6.5185469 10.382812 6.5605469 L 10.248047 7.0820312 C 10.176047 7.0460313 10.052906 6.9975 9.8789062 6.9375 C 9.7109062 6.8775 9.4628125 6.8476562 9.1328125 6.8476562 C 9.0008125 6.8476562 8.8739063 6.8625781 8.7539062 6.8925781 C 8.6399062 6.9165781 8.5392188 6.9595312 8.4492188 7.0195312 C 8.3592187 7.0735313 8.2864219 7.144375 8.2324219 7.234375 C 8.1784219 7.318375 8.1523438 7.4247812 8.1523438 7.5507812 C 8.1523438 7.6767813 8.1746562 7.7830469 8.2226562 7.8730469 C 8.2706562 7.9630469 8.3396875 8.0451875 8.4296875 8.1171875 C 8.5256875 8.1831875 8.6414375 8.2466406 8.7734375 8.3066406 C 8.9114375 8.3666406 9.0662344 8.4319063 9.2402344 8.5039062 C 9.4202344 8.5759063 9.5919062 8.6505156 9.7539062 8.7285156 C 9.9219062 8.8005156 10.069313 8.8900469 10.195312 8.9980469 C 10.321312 9.1000469 10.422 9.2269531 10.5 9.3769531 C 10.578 9.5209531 10.617188 9.7037812 10.617188 9.9257812 C 10.617188 10.345781 10.458625 10.664859 10.140625 10.880859 C 9.828625 11.096859 9.3995156 11.203125 8.8535156 11.203125 C 8.4455156 11.203125 8.1339688 11.167703 7.9179688 11.095703 C 7.7019688 11.029703 7.5583281 10.979359 7.4863281 10.943359 L 7.6386719 10.412109 C 7.6566719 10.424109 7.6958594 10.444609 7.7558594 10.474609 C 7.8158594 10.498609 7.8960469 10.528453 7.9980469 10.564453 C 8.1000469 10.594453 8.221375 10.622484 8.359375 10.646484 C 8.503375 10.670484 8.6675156 10.681641 8.8535156 10.681641 C 9.1895156 10.681641 9.4656406 10.627531 9.6816406 10.519531 C 9.9036406 10.405531 10.013672 10.217125 10.013672 9.953125 C 10.013672 9.827125 9.9931719 9.7189062 9.9511719 9.6289062 C 9.9151719 9.5389063 9.8517187 9.4587187 9.7617188 9.3867188 C 9.6717188 9.3147188 9.5523437 9.2456875 9.4023438 9.1796875 C 9.2583437 9.1136875 9.0792813 9.0353125 8.8632812 8.9453125 C 8.6892812 8.8733125 8.5231875 8.8005156 8.3671875 8.7285156 C 8.2111875 8.6505156 8.073125 8.56475 7.953125 8.46875 C 7.833125 8.36675 7.7380156 8.2454219 7.6660156 8.1074219 C 7.5940156 7.9694219 7.5566406 7.8015156 7.5566406 7.6035156 C 7.5566406 7.2255156 7.6984688 6.9195469 7.9804688 6.6855469 C 8.2684688 6.4515469 8.6621562 6.3359375 9.1601562 6.3359375 z M 11.835938 8.8417969 L 13.660156 8.8417969 L 13.660156 9.1757812 L 12.167969 9.1757812 C 12.164102 9.2498812 12.158224 9.3458906 12.150391 9.4628906 C 12.142591 9.5798906 12.134753 9.6994187 12.126953 9.8242188 C 12.119153 9.9451188 12.109356 10.062681 12.097656 10.175781 C 12.085956 10.288881 12.076159 10.379012 12.068359 10.445312 C 12.368659 10.453112 12.629256 10.490341 12.847656 10.556641 C 13.066056 10.622941 13.244366 10.711119 13.384766 10.824219 C 13.525166 10.937319 13.629012 11.074475 13.695312 11.234375 C 13.765512 11.394275 13.800781 11.572578 13.800781 11.767578 C 13.800781 11.939178 13.771391 12.097894 13.712891 12.246094 C 13.658291 12.394294 13.572078 12.523613 13.455078 12.632812 C 13.338078 12.742012 13.191119 12.828225 13.011719 12.890625 C 12.832319 12.953025 12.618747 12.984375 12.373047 12.984375 C 12.248247 12.984375 12.130684 12.974578 12.021484 12.955078 C 11.916184 12.939478 11.822128 12.919884 11.736328 12.896484 C 11.654428 12.873084 11.583891 12.849572 11.525391 12.826172 C 11.466891 12.802772 11.423784 12.783178 11.396484 12.767578 L 11.496094 12.427734 C 11.519494 12.443334 11.558681 12.462928 11.613281 12.486328 C 11.671781 12.509728 11.7384 12.533241 11.8125 12.556641 C 11.8905 12.576141 11.974759 12.593775 12.068359 12.609375 C 12.165859 12.624975 12.267747 12.632812 12.373047 12.632812 C 12.568047 12.632812 12.730675 12.611259 12.859375 12.568359 C 12.991975 12.521559 13.097781 12.458859 13.175781 12.380859 C 13.253781 12.302859 13.306691 12.212728 13.337891 12.111328 C 13.372991 12.006028 13.390625 11.894337 13.390625 11.773438 C 13.390625 11.617438 13.365153 11.476362 13.314453 11.351562 C 13.263753 11.226762 13.175575 11.120956 13.046875 11.035156 C 12.918175 10.949356 12.743791 10.884697 12.525391 10.841797 C 12.306991 10.794997 12.030712 10.771484 11.695312 10.771484 C 11.718713 10.572584 11.738306 10.392316 11.753906 10.228516 C 11.769506 10.060816 11.783222 9.9001469 11.794922 9.7480469 C 11.806622 9.5920469 11.814459 9.4431281 11.818359 9.2988281 C 11.826159 9.1506281 11.832038 8.9977969 11.835938 8.8417969 z "
     id="path4" />
</svg>

<svg xmlns="http://www.w3.org/2000/svg" viewBox="0 0 16 16">
 <path d="m 1.6 0 c -0.886 0 -1.6 0.713 -1.6 1.6 l 0 12.801 c 0 0.886 0.713 1.6 1.6 1.6 l 12.801 0 c 0.886 0 1.6 -0.713 1.6 -1.6 l 0 -12.801 c 0 -0.886 -0.713 -1.6 -1.6 -1.6 l -12.801 0 z m 3.48 4.725 c 0.234 0 0.447 0.015 0.639 0.045 c 0.192 0.03 0.36 0.069 0.504 0.117 c 0.144 0.042 0.267 0.087 0.369 0.135 c 0.102 0.042 0.18 0.081 0.234 0.117 l -0.199 0.531 c -0.15 -0.09 -0.342 -0.178 -0.576 -0.262 c -0.228 -0.09 -0.513 -0.135 -0.855 -0.135 c -0.39 0 -0.731 0.065 -1.025 0.197 c -0.288 0.132 -0.531 0.319 -0.729 0.559 c -0.198 0.24 -0.347 0.525 -0.449 0.855 c -0.096 0.33 -0.145 0.696 -0.145 1.098 c 0 0.414 0.049 0.789 0.145 1.125 c 0.102 0.33 0.247 0.612 0.439 0.846 c 0.192 0.234 0.427 0.413 0.703 0.539 c 0.282 0.126 0.603 0.189 0.963 0.189 c 0.396 0 0.726 -0.035 0.99 -0.107 c 0.27 -0.078 0.473 -0.156 0.611 -0.234 l 0.172 0.521 c -0.042 0.03 -0.115 0.067 -0.217 0.109 c -0.102 0.036 -0.231 0.075 -0.387 0.117 c -0.156 0.042 -0.337 0.074 -0.541 0.098 c -0.204 0.03 -0.432 0.045 -0.684 0.045 c -0.402 0 -0.777 -0.071 -1.125 -0.215 c -0.342 -0.144 -0.642 -0.355 -0.9 -0.631 c -0.252 -0.276 -0.452 -0.616 -0.602 -1.018 c -0.144 -0.408 -0.217 -0.873 -0.217 -1.395 c 0 -0.522 0.078 -0.983 0.234 -1.385 c 0.162 -0.408 0.375 -0.751 0.639 -1.027 c 0.264 -0.276 0.57 -0.483 0.918 -0.621 c 0.348 -0.144 0.712 -0.215 1.09 -0.215 z m 4.08 1.611 c 0.318 0 0.579 0.026 0.783 0.08 c 0.21 0.054 0.355 0.103 0.439 0.145 l -0.135 0.521 c -0.072 -0.036 -0.195 -0.085 -0.369 -0.145 c -0.168 -0.06 -0.416 -0.09 -0.746 -0.09 c -0.132 0 -0.259 0.015 -0.379 0.045 c -0.114 0.024 -0.215 0.067 -0.305 0.127 c -0.09 0.054 -0.163 0.125 -0.217 0.215 c -0.054 0.084 -0.08 0.19 -0.08 0.316 c 0 0.126 0.022 0.232 0.07 0.322 c 0.048 0.09 0.117 0.172 0.207 0.244 c 0.096 0.066 0.212 0.129 0.344 0.189 c 0.138 0.06 0.293 0.125 0.467 0.197 c 0.18 0.072 0.352 0.147 0.514 0.225 c 0.168 0.072 0.315 0.162 0.441 0.27 c 0.126 0.102 0.227 0.229 0.305 0.379 c 0.078 0.144 0.117 0.327 0.117 0.549 c 0 0.42 -0.159 0.739 -0.477 0.955 c -0.312 0.216 -0.741 0.322 -1.287 0.322 c -0.408 0 -0.72 -0.035 -0.936 -0.107 c -0.216 -0.066 -0.36 -0.116 -0.432 -0.152 l 0.152 -0.531 c 0.018 0.012 0.057 0.033 0.117 0.063 c 0.06 0.024 0.14 0.054 0.242 0.09 c 0.102 0.03 0.223 0.058 0.361 0.082 c 0.144 0.024 0.308 0.035 0.494 0.035 c 0.336 0 0.612 -0.054 0.828 -0.162 c 0.222 -0.114 0.332 -0.302 0.332 -0.566 c 0 -0.126 -0.021 -0.234 -0.063 -0.324 c -0.036 -0.09 -0.099 -0.17 -0.189 -0.242 c -0.09 -0.072 -0.209 -0.141 -0.359 -0.207 c -0.144 -0.066 -0.323 -0.144 -0.539 -0.234 c -0.174 -0.072 -0.34 -0.145 -0.496 -0.217 c -0.156 -0.078 -0.294 -0.164 -0.414 -0.26 c -0.12 -0.102 -0.215 -0.223 -0.287 -0.361 c -0.072 -0.138 -0.109 -0.306 -0.109 -0.504 c 0 -0.378 0.142 -0.684 0.424 -0.918 c 0.288 -0.234 0.682 -0.35 1.18 -0.35 z m 2.676 2.506 l 1.824 0 l 0 0.334 l -1.492 0 c -0.004 0.074 -0.01 0.17 -0.018 0.287 c -0.008 0.117 -0.016 0.237 -0.023 0.361 c -0.008 0.121 -0.018 0.238 -0.029 0.352 c -0.012 0.113 -0.021 0.203 -0.029 0.27 c 0.3 0.008 0.561 0.045 0.779 0.111 c 0.218 0.066 0.397 0.154 0.537 0.268 c 0.14 0.113 0.244 0.25 0.311 0.41 c 0.07 0.16 0.105 0.338 0.105 0.533 c 0 0.172 -0.029 0.33 -0.088 0.479 c -0.055 0.148 -0.141 0.278 -0.258 0.387 c -0.117 0.109 -0.264 0.195 -0.443 0.258 c -0.179 0.062 -0.393 0.094 -0.639 0.094 c -0.125 0 -0.242 -0.01 -0.352 -0.029 c -0.105 -0.016 -0.199 -0.035 -0.285 -0.059 c -0.082 -0.023 -0.152 -0.047 -0.211 -0.07 c -0.059 -0.023 -0.102 -0.043 -0.129 -0.059 l 0.1 -0.34 c 0.023 0.016 0.063 0.035 0.117 0.059 c 0.058 0.023 0.125 0.047 0.199 0.07 c 0.078 0.019 0.162 0.037 0.256 0.053 c 0.098 0.016 0.199 0.023 0.305 0.023 c 0.195 0 0.358 -0.022 0.486 -0.064 c 0.133 -0.047 0.238 -0.109 0.316 -0.188 c 0.078 -0.078 0.131 -0.168 0.162 -0.27 c 0.035 -0.105 0.053 -0.217 0.053 -0.338 c 0 -0.156 -0.025 -0.297 -0.076 -0.422 c -0.051 -0.125 -0.139 -0.231 -0.268 -0.316 c -0.129 -0.086 -0.303 -0.15 -0.521 -0.193 c -0.218 -0.047 -0.495 -0.07 -0.83 -0.07 c 0.023 -0.199 0.043 -0.379 0.059 -0.543 c 0.016 -0.168 0.029 -0.328 0.041 -0.48 c 0.012 -0.156 0.02 -0.305 0.023 -0.449 c 0.008 -0.148 0.014 -0.301 0.018 -0.457 z" style="fill:#353535;fill-opacity:1"/>
</svg>
